actions/22x22-light/percent.svg

<svg viewBox="0 0 22 22" xmlns="http://www.w3.org/2000/svg"><path d="m6.4414062 3c-1.0428305 0-1.9433484.3808485-2.703125 1.140625-.7448789.7597765-1.1191406 1.6517546-1.1191406 2.6796875s.3742617 1.9218641 1.1191406 2.6816406c.7597766.7597769 1.6602945 1.1406249 2.703125 1.1406249 1.0428306 0 1.9367617-.380848 2.6816407-1.1406249.7597765-.7597765 1.1386721-1.6537077 1.1386721-2.6816406s-.3788956-1.919911-1.1386721-2.6796875c-.744879-.7597765-1.6388101-1.140625-2.6816407-1.140625zm8.8945318.1796875-9.945313 14.8144535 1.2734375.826171 9.9218755-14.7929682zm.222656 8.1777345c-1.042831 0-1.943349.380848-2.703125 1.140625-.744879.759776-1.117188 1.653708-1.117188 2.681641 0 1.027932.372309 1.91991 1.117188 2.679687.759776.759777 1.660294 1.140625 2.703125 1.140625 1.04283 0 1.936761-.380848 2.68164-1.140625.759777-.759777 1.140625-1.651755 1.140625-2.679687 0-1.027933-.380848-1.921865-1.140625-2.681641-.744879-.759777-1.63881-1.140625-2.68164-1.140625z" fill="#4d4d4d"/></svg>

<svg xmlns="http://www.w3.org/2000/svg" viewBox="0 0 22 22">
  <defs id="defs3051">
    <style type="text/css" id="current-color-scheme">
      .ColorScheme-Text {
        color:#4d4d4d
      }
      </style>
  </defs>
 <path 
     style="fill:currentColor;fill-opacity:1;stroke:none"      
	 class="ColorScheme-Text"
        d="M 6.4414062 3 C 5.3985757 3 4.4980578 3.3808485 3.7382812 4.140625 C 2.9934023 4.9004015 2.6191406 5.7923796 2.6191406 6.8203125 C 2.6191406 7.8482454 2.9934023 8.7421766 3.7382812 9.5019531 C 4.4980578 10.26173 5.3985757 10.642578 6.4414062 10.642578 C 7.4842368 10.642578 8.3781679 10.26173 9.1230469 9.5019531 C 9.8828234 8.7421766 10.261719 7.8482454 10.261719 6.8203125 C 10.261719 5.7923796 9.8828234 4.9004015 9.1230469 4.140625 C 8.3781679 3.3808485 7.4842368 3 6.4414062 3 z M 15.335938 3.1796875 L 5.390625 17.994141 L 6.6640625 18.820312 L 16.585938 4.0273438 L 15.335938 3.1796875 z M 15.558594 11.357422 C 14.515763 11.357422 13.615245 11.73827 12.855469 12.498047 C 12.11059 13.257823 11.738281 14.151755 11.738281 15.179688 C 11.738281 16.20762 12.11059 17.099598 12.855469 17.859375 C 13.615245 18.619152 14.515763 19 15.558594 19 C 16.601424 19 17.495355 18.619152 18.240234 17.859375 C 19.000011 17.099598 19.380859 16.20762 19.380859 15.179688 C 19.380859 14.151755 19.000011 13.257823 18.240234 12.498047 C 17.495355 11.73827 16.601424 11.357422 15.558594 11.357422 z "
     />
</svg>
